!!!!SEGMENT: artfugue-009.krn
!!!COM: Bach, Johann Sebastian
!!!CDT: 1685/03/31-1750/07/28
!!!OPR@@DE: Die Kunst der Fuge
!!!OPR@EN: The Art of the Fugue
!!!OTL: Contrapunctus 9, a 4, alla Duodecima
!!!SCA: BWV 1080
!!!voices: 4
!!!AGN: Double fugue
!!!ONB1: Two subjects occurring dependently and in invertible
!!!ONB2: counterpoint at the twelfth
**kern	**kern	**kern	**kern
*part4	*part3	*part2	*part1
*staff4	*staff3	*staff2	*staff1
*I"	*I"	*I"	*I"
*clefF4	*clefC4	*clefC3	*clefC1
*mclefF4	*mclefGv2	*mclefG2	*mclefG2
*k[b-]	*k[b-]	*k[b-]	*k[b-]
*d:	*d:	*d:	*d:
*M4/4	*M4/4	*M4/4	*M4/4
*met(c)	*met(c)	*met(c)	*met(c)
*mmet(c)	*mmet(c)	*mmet(c)	*mmet(c)
*MM180	*MM180	*MM180	*MM180
=1	=1	=1	=1
1r	1r	4r	1r
.	.	4d	.
.	.	[2dd	.
=2	=2	=2	=2
1r	1r	4dd]	1r
.	.	8cc#XL	.
.	.	8bnJ	.
.	.	8aL	.
.	.	8g	.
.	.	8f	.
.	.	8eJ	.
=3	=3	=3	=3
1r	1r	8dL	1r
.	.	8c#X	.
.	.	8d	.
.	.	8eJ	.
.	.	8fL	.
.	.	8d	.
.	.	8e	.
.	.	8fJ	.
=4	=4	=4	=4
1r	1r	8gL	1r
.	.	8f#X	.
.	.	8g	.
.	.	8aJ	.
.	.	8b-L	.
.	.	8g	.
.	.	8a	.
.	.	8b-J	.
=5	=5	=5	=5
1r	1r	(4b-M	1r
.	.	4a)	.
.	.	8r	.
.	.	8aL	.
.	.	8g	.
.	.	8aJ	.
=6	=6	=6	=6
1r	1r	8b-L	1r
.	.	8dd	.
.	.	8cc	.
.	.	8b-J	.
.	.	8ccL	.
.	.	8b-	.
.	.	8a	.
.	.	8gJ	.
!!LO:LB:g=original
=7	=7	=7	=7
1r	1r	8fL	1r
.	.	8b-	.
.	.	8a	.
.	.	8gJ	.
.	.	8aL	.
.	.	8g	.
.	.	8f	.
.	.	8eJ	.
=8	=8	=8	=8
1r	1r	8dL	4r
.	.	8g	.
.	.	8f	4a
.	.	8eJ	.
.	.	8fL	[2aa
.	.	8e	.
.	.	8d	.
.	.	8cJ	.
=9	=9	=9	=9
1r	1r	4Bn	4aa]
.	.	4e	8gg#XL
.	.	.	8ff#XJ
.	.	4g#X	8eeL
.	.	.	8dd
.	.	4e	8cc
.	.	.	8bnJ
=10	=10	=10	=10
1r	1r	8cL	8aL
.	.	8d	8g#X
.	.	8c	8a
.	.	8BnJ	8bnJ
.	.	4A	8ccL
.	.	.	8a
.	.	4g	8b
.	.	.	8ccJ
=11	=11	=11	=11
1r	1r	8fL	8ddL
.	.	8g	8cc#X
.	.	8f	8dd
.	.	8eJ	8eeJ
.	.	4d	8ffL
.	.	.	8dd
.	.	4dd	8ee
.	.	.	8ffJ
=12	=12	=12	=12
1r	1r	4g#X	(4ffM
.	.	8aL	4ee)
.	.	8bnJ	.
.	.	4cc	8r
.	.	.	8eeL
.	.	4b	8dd
.	.	.	8eeJ
!!LO:LB:g=original
=13	=13	=13	=13
1r	1r	2a	8ffL
.	.	.	8aa
.	.	.	8gg
.	.	.	8ffJ
.	.	4r	8ggL
.	.	.	8ff
.	.	4g#X	8ee
.	.	.	8ddJ
=14	=14	=14	=14
1r	1r	2a	8ccL
.	.	.	8ff
.	.	.	8ee
.	.	.	8ddJ
.	.	4r	8eeL
.	.	.	8dd
.	.	4e	8cc
.	.	.	8b-XJ
=15	=15	=15	=15
4r	1r	2f	8aL
.	.	.	8dd
4D	.	.	8cc
.	.	.	8b-J
[2d	.	4r	8ccL
.	.	.	8b-
.	.	4f	8a
.	.	.	8g#XJ
=16	=16	=16	=16
4d]	1r	2e	4a
8c#XL	.	.	4ee
8BnJ	.	.	.
8AL	.	4r	2cc#X
8G	.	.	.
8F	.	[4g	.
8EJ	.	.	.
=17	=17	=17	=17
8DL	1r	4g]	2dd
8C#X	.	.	.
8D	.	8fL	.
8EJ	.	8gJ	.
8FL	.	2a	4r
8D	.	.	.
8E	.	.	[4ccn
8FJ	.	.	.
=18	=18	=18	=18
8GL	1r	2d	4cc]
8F#X	.	.	.
8G	.	.	(8b-L
8AJ	.	.	8ddJ)
8B-L	.	4r	4gg
8G	.	.	.
8A	.	4g	4ee
8B-J	.	.	.
!!LO:LB:g=original
=19	=19	=19	=19
(4B-	1r	4e	2cc#X
4A)	.	8fL	.
.	.	8gJ	.
8r	.	4f	4r
8AL	.	.	.
8G	.	4e	4cc#
8AJ	.	.	.
=20	=20	=20	=20
8B-L	1r	4d	4dd
8d	.	.	.
8c	.	4r	4ff
8B-J	.	.	.
8cL	.	4r	(16eeLL
.	.	.	16ffJ
8B-	.	.	8ggJ)
8A	.	4e	4b-
8GJ	.	.	.
=21	=21	=21	=21
8FL	1r	4f	4a
8B-	.	.	.
8A	.	4r	4dd
8GJ	.	.	.
8AL	.	4r	(16cc#XLL
.	.	.	16ddJ
8G	.	.	8eeJ)
8F	.	4c#X	4g
8EJ	.	.	.
=22	=22	=22	=22
8DL	4r	2d	2f
8G	.	.	.
8F	4A	.	.
8EJ	.	.	.
8FL	[2a	4r	4r
8E	.	.	.
8D	.	4e	4cc
8CJ	.	.	.
=23	=23	=23	=23
4D	4a]	4f	2bn
4BBn	8g#XL	4d	.
.	8f#XJ	.	.
2E	8eL	8r	4r
.	8d	8fL	.
.	8c	8e	4g#X
.	8BnJ	8dJ	.
=24	=24	=24	=24
2AA	8AL	8cL	[1a
.	8G#X	8Bn	.
.	8A	8c	.
.	8BnJ	8dJ	.
2r	8cL	8eL	.
.	8A	8c	.
.	8B	8d	.
.	8cJ	8eJ	.
!!LO:LB:g=original
=25	=25	=25	=25
8r	8dL	4f	1a]
8GL	8c#X	.	.
8F	8d	4r	.
8EJ	8eJ	.	.
8DL	8fL	2r	.
8C	8d	.	.
8BBn	8e	.	.
8AAJ	8fJ	.	.
=26	=26	=26	=26
4.GG#Xt	(4f	1r	8bnL
.	.	.	8cc
.	4e)	.	8dd
16FF#XLL	.	.	8bJ
16GG#JJ	.	.	.
8AAL	8r	.	[2cc
8GGn	8eL	.	.
8FFn	8d	.	.
8EEJ	8eJ	.	.
=27	=27	=27	=27
4DD	8fL	1r	2cc]
.	8a	.	.
4D	8g	.	.
.	8fJ	.	.
4E	8gL	.	2b-X
.	8f	.	.
4C	8e	.	.
.	8dJ	.	.
=28	=28	=28	=28
4F	8cL	1r	2a
.	8f	.	.
4BBn	8e	.	.
.	8dJ	.	.
4C#X	8eL	.	2g
.	8d	.	.
4AA	8c#	.	.
.	8BnJ	.	.
=29	=29	=29	=29
2D	4A	1r	8fL>
.	.	.	8a
.	8B-XL	.	8g
.	8AJ	.	8fJ
4r	[2B-	.	8gL
.	.	.	8f
4D	.	.	8e
.	.	.	8dJ
=30	=30	=30	=30
2E	4B-]	1r	8gL
.	.	.	8b-
.	8cL	.	8a
.	8B-J	.	8gJ
4r	[2c	.	8aL
.	.	.	8g
4C	.	.	8f
.	.	.	8eJ
!!LO:LB:g=original
=31	=31	=31	=31
8FL	4c]	2r	4a
8A	.	.	.
8G	4r	.	4cc
8FJ	.	.	.
8GL	2r	4r	[2ff
8F	.	.	.
8E	.	4a	.
8DJ	.	.	.
=32	=32	=32	=32
8GL	1r	8b-L	2ff]
8B-	.	8dd	.
8A	.	8cc	.
8GJ	.	8b-J	.
8AL	.	8ccL	[2ee
8G	.	8b-	.
8F	.	8a	.
8EJ	.	8gJ	.
=33	=33	=33	=33
2A	1r	8fL	2ee]
.	.	8a	.
.	.	8g	.
.	.	8fJ	.
4r	.	8gL	[2dd
.	.	8f	.
4B-	.	8e	.
.	.	8dJ	.
=34	=34	=34	=34
4G	1r	8eL	2dd]
.	.	8b-	.
4E	.	8a	.
.	.	8gJ	.
4A	.	8aL	2cc#X
.	.	8g	.
4AA	.	8f	.
.	.	8eJ	.
=35	=35	=35	=35
4BB-	4r	8dL	1dd
.	.	8cc	.
4F	4D	8b-	.
.	.	8aJ	.
2B-	[2d	8gL	.
.	.	8f	.
.	.	8e	.
.	.	8gJ	.
=36	=36	=36	=36
2A	4d]	4f	1aa
.	8c#XL	4e	.
.	8BnJ	.	.
2r	8AL	4r	.
.	8G	.	.
.	8F	4cc#X	.
.	8EJ	.	.
!!LO:LB:g=original
=37	=37	=37	=37
1r	8DL	4dd	1ff
.	8C#X	.	.
.	8D	4a	.
.	8EJ	.	.
.	8FL	4dd	.
.	8D	.	.
.	8E	[4ccn	.
.	8FJ	.	.
=38	=38	=38	=38
1r	8GL	4cc]	1dd
.	8F#X	.	.
.	8G	8b-L	.
.	8AJ	8aJ	.
.	8B-L	4g	.
.	8G	.	.
.	8A	4f	.
.	8B-J	.	.
=39	=39	=39	=39
1r	(4B-	4e	1cc#X
.	4A)	8fL	.
.	.	8gJ	.
.	8r	4f	.
.	8AL	.	.
.	8G	4e	.
.	8AJ	.	.
=40	=40	=40	=40
1r	8B-L	4d	2dd
.	8d	.	.
.	8c	2g	.
.	8B-J	.	.
.	8cL	.	2ee
.	8B-	.	.
.	8A	4b-	.
.	8GJ	.	.
=41	=41	=41	=41
1r	8FL	4a	[1ff
.	8B-	.	.
.	8A	4cc	.
.	8GJ	.	.
.	8AL	4f	.
.	8G	.	.
.	8F	8aL	.
.	8EJ	8gJ	.
=42	=42	=42	=42
1r	2D	8aL	4ff]
.	.	8ee	.
.	.	8dd	4gg
.	.	8cc#XJ	.
.	8r	8ddL	4ff
.	8DL	8ccn	.
.	8E	8b-	4ee
.	8FJ	8aJ	.
!!LO:LB:g=original
=43	=43	=43	=43
1r	8GL	4b-	[1dd
.	8A	.	.
.	8G	4cc	.
.	8FJ	.	.
.	8GL	4b-	.
.	8F	.	.
.	8E	4a	.
.	8DJ	.	.
=44	=44	=44	=44
1r	8EL	2g	8ddL]
.	8F	.	8dd
.	8E	.	8cc
.	8DJ	.	8b-J
.	8EL	2r	8ccL
.	8C	.	8b-
.	8D	.	8a
.	8EJ	.	8gJ
=45	=45	=45	=45
1r	1F	4r	8aL
.	.	.	8ccc
.	.	4c	8bb-
.	.	.	8aaJ
.	.	[2cc	8bb-L
.	.	.	8aa
.	.	.	8gg
.	.	.	8ffJ
=46	=46	=46	=46
1r	1c	4cc]	8eeL
.	.	.	8ffJ
.	.	8b-L	4gg
.	.	8aJ	.
.	.	8gL	4r
.	.	8f	.
.	.	8e	4gg
.	.	8dJ	.
=47	=47	=47	=47
1r	1A	8cL	(4gg
.	.	8B-	.
.	.	8c	4ff)
.	.	8dJ	.
.	.	8eL	8r
.	.	8c	8ccL
.	.	8d	8b-
.	.	8eJ	8ccJ
=48	=48	=48	=48
1r	1F	8fL	4a
.	.	8e	.
.	.	8f	4dd
.	.	8gJ	.
.	.	8aL	4cc
.	.	8f	.
.	.	8g	4bn
.	.	8aJ	.
!!LO:LB:g=original
=49	=49	=49	=49
1r	1E	(4a	4cc
.	.	4g)	8b-XL
.	.	.	8aJ
.	.	8r	2b-
.	.	8gL	.
.	.	8f	.
.	.	8gJ	.
=50	=50	=50	=50
1r	2F	8aL	4a
.	.	8cc	.
.	.	8b-	4ff
.	.	8aJ	.
.	2G	8b-L	[2dd
.	.	8a	.
.	.	8g	.
.	.	8fJ	.
=51	=51	=51	=51
1r	[1A	8eL	8ddL]
.	.	8a	8cc
.	.	8g	8b-
.	.	8fJ	8aJ
.	.	8gL	8b-L
.	.	8f	8a
.	.	8e	8g
.	.	8dJ	8fJ
=52	=52	=52	=52
1r	4A]	2c	8eL<
.	.	.	8f
.	4B-	.	8g
.	.	.	8aJ
.	4A	8r	[2b-
.	.	8cL	.
.	4G	8d	.
.	.	8eJ	.
=53	=53	=53	=53
1r	4F	[2f	8b-L]
.	.	.	8a
.	4d	.	8bn
.	.	.	8ccJ
.	4c	8fL]	[2dd
.	.	8e	.
.	4BnX	8f#X	.
.	.	8g#XJ	.
=54	=54	=54	=54
1r	4A	[2a	8ddL]
.	.	.	8cc
.	4f	.	8dd
.	.	.	8eeJ
.	4e	8aL]	[2ff
.	.	8gn	.
.	4d	8a	.
.	.	8bnJ	.
!!LO:LB:g=original
=55	=55	=55	=55
1r	2c	4cc	8ffL]
.	.	.	8ff
.	.	4e	8ee
.	.	.	8ddJ
.	2BnX	4f#X	8eeL
.	.	.	8dd
.	.	4g#X	8cc
.	.	.	8bnJ
=56	=56	=56	=56
1r	2A	4a	8ccL
.	.	.	8dd
.	.	4c	8cc
.	.	.	8b-XJ
.	2G	4d	8ccL
.	.	.	8b-
.	.	4e	8a
.	.	.	8gJ
=57	=57	=57	=57
1r	8FL	4f	4a
.	8B-	.	.
.	8A	4g	4cc#X
.	8GJ	.	.
.	8AL	4f	4dd
.	8G	.	.
.	8F	4c#X	4ee
.	8EJ	.	.
=58	=58	=58	=58
1r	8FL	(4c#X	8aL
.	8G	.	8b-
.	8F	4d)	8a
.	8EJ	.	8gJ
.	8FL	2r	8aL
.	8E	.	8g
.	8D	.	8f
.	8C#XJ	.	8eJ
=59	=59	=59	=59
4r	2D	1d	8fL
.	.	.	8cc
4DD	.	.	8b-
.	.	.	8aJ
[2D/	2r	.	8b-L
.	.	.	8a
.	.	.	8g
.	.	.	8fJ
=60	=60	=60	=60
4D/]	1r	1a	4e
8C#XL	.	.	4ee
8BBnJ	.	.	.
8AAL	.	.	8r
8GG	.	.	8eeL
8FF	.	.	8dd
8EEJ	.	.	8cc#XJ
!!LO:LB:g=original
=61	=61	=61	=61
8DDL	1r	1f	4dd
8CC#X	.	.	.
8DD	.	.	4a
8EEJ	.	.	.
8FFL	.	.	4dd
8DD	.	.	.
8EE	.	.	4ccn
8FFJ	.	.	.
=62	=62	=62	=62
8GGL	1r	1d	4b-
8FF#X	.	.	.
8GG	.	.	4a
8AAJ	.	.	.
8BB-L	.	.	4g
8GG	.	.	.
8AA	.	.	4f
8BB-J	.	.	.
=63	=63	=63	=63
(4BB-	1r	1c#X	8eL
.	.	.	8d
4AA)	.	.	8e
.	.	.	8fJ
8r	.	.	8gL
8AAL	.	.	8eJ
8GG	.	.	[4a
8AAJ	.	.	.
=64	=64	=64	=64
8BB-L	1r	2d	8aL]
8D	.	.	8fJ
8C	.	.	[4b-
8BB-J	.	.	.
8CL	.	2e	8b-L]
8BB-	.	.	8g
8AA	.	.	8cc
8GGJ	.	.	8b-J
=65	=65	=65	=65
8FFL	1r	[1f	8aL
8BB-	.	.	8dd
8AA	.	.	8cc
8GGJ	.	.	8b-J
8AAL	.	.	8ccL
8GG	.	.	8aJ
8FF	.	.	[4cc
8EEJ	.	.	.
=66	=66	=66	=66
2DD	1r	4f]	8ccL]
.	.	.	8dd
.	.	4g	8cc
.	.	.	8b-J
2r	.	4f	8ccL
.	.	.	8b-
.	.	4e	8a
.	.	.	8gJ
!!LO:LB:g=original
=67	=67	=67	=67
4r	1r	8dL	[1f
.	.	8e	.
4DD	.	8d	.
.	.	8c#XJ	.
4EE	.	8dL	.
.	.	8cn	.
4FF	.	8Bn	.
.	.	8AJ	.
=68	=68	=68	=68
4GG	1r	[1Bn	8fL>]
.	.	.	8a
4G	.	.	8g
.	.	.	8fJ
4E	.	.	8gL
.	.	.	8f
4G	.	.	8e
.	.	.	8dJ
=69	=69	=69	=69
4C	1r	8BL>]	[1e
.	.	8d	.
4CC	.	8c	.
.	.	8BnJ	.
4DD	.	8cL	.
.	.	8B	.
4EE	.	8A	.
.	.	8G#XJ	.
=70	=70	=70	=70
4FF	1r	4A	8eL]
.	.	.	8gg
4A	.	4r	8ff
.	.	.	8eeJ
4D	.	2r	8ffL
.	.	.	8ee
4F	.	.	8dd
.	.	.	8ccJ
=71	=71	=71	=71
4BBn	1r	8r	[1dd
.	.	8ccL	.
4D/	.	8bn	.
.	.	8aJ	.
4GG#X	.	8bL	.
.	.	8a	.
4BB	.	8g#X	.
.	.	8f#XJ	.
=72	=72	=72	=72
4EE	1r	4g#X	8ddL]
.	.	.	8ff
4E	.	4r	8ee
.	.	.	8ddJ
4F#X	.	2r	8eeL
.	.	.	8dd
4G#X	.	.	8cc
.	.	.	8bnJ
!!LO:LB:g=original
=73	=73	=73	=73
[1A	1A	4r	8ccL
.	.	.	8ee
.	.	4e	8dd
.	.	.	8ccJ
.	.	[2ee	8ddL
.	.	.	8cc
.	.	.	8bn
.	.	.	8aJ
=74	=74	=74	=74
8AL]	1e	4ee]	4bn
8G#X	.	.	.
8A	.	8ddL	4r
8F#XJ	.	8ccJ	.
4G#X	.	8bnL	2r
.	.	8a	.
4Bn	.	8g#X	.
.	.	8f#XJ	.
=75	=75	=75	=75
(4Bn	1c	8eL	4r
.	.	8d	.
4A)	.	8e	4e
.	.	8f#XJ	.
4r	.	8g#XL	[2ee
.	.	8e	.
4E	.	8f#	.
.	.	8g#J	.
=76	=76	=76	=76
1F	1A	8aL	4ee]
.	.	8g#X	.
.	.	8a	4dd#X
.	.	8bnJ	.
.	.	8ccL	4r
.	.	8a	.
.	.	8b	4dd#
.	.	8ccJ	.
=77	=77	=77	=77
1E	1G#X	(4cc	8eeL
.	.	.	8ff
.	.	4bn)	8ee
.	.	.	8ddnJ
.	.	8r	8eeL
.	.	8bL	8dd
.	.	8a	8cc
.	.	8bJ	8bnJ
=78	=78	=78	=78
1r	2A	8ccL	4a
.	.	8ee	.
.	.	8dd	4aa
.	.	8ccJ	.
.	2BnX	8ddL	4dd
.	.	8cc	.
.	.	8bn	[4ff
.	.	8aJ	.
!!LO:LB:g=original
=79	=79	=79	=79
1r	[1c	8gL	8ffL]
.	.	8cc	8ee
.	.	8bn	8dd
.	.	8aJ	8ccJ
.	.	8bL	8ddL
.	.	8a	8cc
.	.	8g#X	8bn
.	.	8f#XJ	8aJ
=80	=80	=80	=80
8r	4c]	(4e	2g#X
8DL	.	.	.
8C	4d	4fn)	.
8BBnJ	.	.	.
8CL	4c	[2e	4a
8BB	.	.	.
8AA	4BnX	.	4bn
8GG#XJ	.	.	.
=81	=81	=81	=81
4AA	8AL	4e]	[1cc
.	8G#X	.	.
4r	8A	4e	.
.	8BnJ	.	.
2r	8cL	4a	.
.	8A	.	.
.	8B	4g	.
.	8cJ	.	.
=82	=82	=82	=82
1r	8dL	4f#X	4cc]
.	8c#X	.	.
.	8d	4r	4a
.	8eJ	.	.
.	8f#XL	2r	4dd
.	8d	.	.
.	8e	.	4cc
.	8f#J	.	.
=83	=83	=83	=83
1r	8GL	4r	[1bn
.	8F#X	.	.
.	8G	4d	.
.	8AJ	.	.
.	8BnL	4g	.
.	8G	.	.
.	8A	4f	.
.	8BJ	.	.
=84	=84	=84	=84
1r	8cL	4e	4b]
.	8Bn	.	.
.	8c	4r	4g
.	8dJ	.	.
.	8eL	2r	4cc
.	8c	.	.
.	8d	.	4b-X
.	8eJ	.	.
!!LO:LB:g=original
=85	=85	=85	=85
1r	4F	8r	1a
.	.	8eeL	.
.	4E	8dd	.
.	.	8ccJ	.
.	4F#X	8ddL	.
.	.	8cc	.
.	4D	8bn	.
.	.	8aJ	.
=86	=86	=86	=86
1r	4G	8bnL	1ee
.	.	8cc	.
.	4F#X	8b	.
.	.	8aJ	.
.	4G#X	8bL	.
.	.	8a	.
.	4E	8g#X	.
.	.	8f#XJ	.
=87	=87	=87	=87
1r	4A	1e	8ccL
.	.	.	8aa
.	8B-L	.	8gg
.	8AJ	.	8ffJ
.	4B-	.	8ggL
.	.	.	8ff
.	[4G	.	8ee
.	.	.	8ddJ
=88	=88	=88	=88
1r	8GL]	[1a	8cc#XL
.	8g	.	8ee
.	8f	.	8dd
.	8eJ	.	8cc#J
.	8fL	.	8ddL
.	8e	.	8cc#X
.	8d	.	8bn
.	8c#XJ	.	8aJ
=89	=89	=89	=89
1D	8dL	4a]	4dd
.	8E	.	.
!!LO:MO:ori
*	*	*clefC1	*
!!LO:MO:end
.	8F	8ddL	4a
.	8GJ	8eeJ	.
.	8AL	4ff	[2aa
.	8G	.	.
.	8A	8eeL	.
.	8BnJ	8ddJ	.
=90	=90	=90	=90
1A	8c#XL	4ee	4aa]
.	8Bn	.	.
.	8c#	4r	8ggL
.	8dJ	.	8ffJ
.	8c#L	2r	8eeL
.	8dJ	.	8dd
.	[4e	.	8cc#X
.	.	.	8bnJ
!!LO:MO:ori
*	*	*clefC3	*
!!LO:MO:end
!!LO:LB:g=original
=91	=91	=91	=91
1F	4e]	2r	8aL
.	.	.	8g
.	4d	.	8a
.	.	.	8bnJ
.	[2A	8r	8ccL
.	.	8cL	8a
.	.	8d	8b
.	.	8eJ	8cc#XJ
=92	=92	=92	=92
1D	4A]	4f	8ddL
.	.	.	8cc#X
.	4F	4r	8dd
.	.	.	8eeJ
.	4B-	8r	8ffL
.	.	8fL	8dd
.	4d	8g	8ee
.	.	8aJ	8ffJ
=93	=93	=93	=93
1C#X	4G	8b-L	(4ff
.	.	8a	.
.	4B-	8g	4ee)
.	.	8b-J	.
.	8EL	[2a	8r
.	8G	.	8eeL
.	8F	.	8dd
.	8EJ	.	8eeJ
=94	=94	=94	=94
2D	4D	4a]	8ffL
.	.	.	8aa
.	4r	2b-	8gg
.	.	.	8ffJ
2E	2r	.	8ggL
.	.	.	8ff
.	.	8ccL	8ee
.	.	8b-J	8ddJ
=95	=95	=95	=95
[1F	4r	4a	8ccL
.	.	.	8ff
.	4A	4f	8ee
.	.	.	8ddJ
.	2B-	4g	8eeL
.	.	.	8dd
.	.	4e	8cc
.	.	.	8b-J
=96	=96	=96	=96
4F]	4c	4f	8aL
.	.	.	8dd
4G	4r	4r	8cc
.	.	.	8b-J
4F	4r	4r	8ccL
.	.	.	8b-
4E	4G	4c#X	8a
.	.	.	8gJ
!!LO:LB:g=original
=97	=97	=97	=97
[1D	4A	4d	8fL
.	.	.	8b-
.	4E	4r	8a
.	.	.	8gJ
.	4F	2r	8aL
.	.	.	8g
.	4A	.	8f
.	.	.	8eJ
=98	=98	=98	=98
8DL]	8B-L	1r	[1d
8E-X	8c	.	.
8D	8B-	.	.
8CJ	8AJ	.	.
8DL	8B-L	.	.
8C	8A	.	.
8BB-	8G	.	.
8AAJ	8F#XJ	.	.
=99	=99	=99	=99
2BB-	1G	4r	8dL]
.	.	.	8dd
.	.	4d	8cc
.	.	.	8b-J
4r	.	[2dd	8ccL
.	.	.	8b-
4B-	.	.	8a
.	.	.	8gJ
=100	=100	=100	=100
4F#X	1d	4dd]	4a
4A	.	8ccL	4r
.	.	8b-J	.
4F#	.	8aL	2r
.	.	8g	.
4D	.	8f#X	.
.	.	8eJ	.
=101	=101	=101	=101
2G	1B-	8dL	2r
.	.	8c#X	.
.	.	8d	.
.	.	8eJ	.
2D	.	8f#XL	[2b-
.	.	8d	.
.	.	8e	.
.	.	8f#J	.
=102	=102	=102	=102
4E-X	1G	8gL	4b-]
.	.	8f#X	.
4F	.	8g	4bn
.	.	8aJ	.
4En	.	8b-L	4cc
.	.	8g	.
4E-X	.	8a	4cc#X
.	.	8b-J	.
!!LO:LB:g=original
=103	=103	=103	=103
2D	1F#X	(4b-	8r
.	.	.	8ddL
.	.	4a)	8ccn
.	.	.	8b-J
8r	.	8r	4cc
8CL	.	8aL	.
8BB-	.	8g	4dd
8AAJ	.	8aJ	.
=104	=104	=104	=104
4GG	2G	8b-L	4b-
.	.	8dd	.
4r	.	8cc	2gg
.	.	8b-J	.
2r	2A	8ccL	.
.	.	8b-	.
.	.	8a	8ffL
.	.	8gJ	8ee-XJ
=105	=105	=105	=105
4r	[1B-	8fL	4dd
.	.	8b-	.
4E-X	.	8a-X	4ee-X
.	.	8gJ	.
4D	.	8a-L	4ff
.	.	8g	.
4G	.	8f	4r
.	.	8e-XJ	.
=106	=106	=106	=106
8FL	4B-]	2d	1r
8A-X	.	.	.
8G	4c	.	.
8FJ	.	.	.
8GL	4B-	4e-X	.
8F	.	.	.
8E-X	4A-X	4f	.
8DJ	.	.	.
=107	=107	=107	=107
8E-XL	[1G	4B-	1r
8F	.	.	.
8E-	.	4Bn	.
8DJ	.	.	.
8E-L	.	4c	.
8D	.	.	.
8C	.	4d	.
8BBnJ	.	.	.
=108	=108	=108	=108
8CL	4G]	[1e-X	1r
8D	.	.	.
8C	4G	.	.
8BB-XJ	.	.	.
8CL	4A	.	.
8BB-	.	.	.
8AA	4B-	.	.
8GGJ	.	.	.
!!LO:LB:g=original
=109	=109	=109	=109
8AAL	[1c	8e-L]	1r
8BB-	.	8g	.
8AA	.	8f	.
8GGJ	.	8e-XJ	.
8AAL	.	8fL	.
8GG	.	8e-	.
8FF#X	.	8d	.
8EEJ	.	8cJ	.
=110	=110	=110	=110
2FF#X	8cL]	[1a	1r
.	8e-X	.	.
.	8d	.	.
.	8cJ	.	.
4r	8dL	.	.
.	8c	.	.
4F#X	8B-	.	.
.	8AJ	.	.
=111	=111	=111	=111
4G	2B-	8aL]	1r
.	.	8b-	.
4E-X	.	8a	.
.	.	8gJ	.
4C	4c	8b-L	.
.	.	8a	.
4D	4A	8g	.
.	.	8f#XJ	.
=112	=112	=112	=112
4GG	4B-	4g	8r
.	.	.	8dL
4r	4c	4r	8e
.	.	.	8f#XJ
2r	4B-	2r	8gL
.	.	.	8f#
.	4A	.	8g
.	.	.	8aJ
=113	=113	=113	=113
4r	2G	1r	8b-L
.	.	.	8g
4F	.	.	8a
.	.	.	8bnJ
4E-X	4A	.	8ccL
.	.	.	8b
4D	4Bn	.	8cc
.	.	.	8ddJ
!!LO:LB:g=original
=114	=114	=114	=114
4C	4c	8r	4ee-X
.	.	8BnL	.
4r	4r	8c	4dd
.	.	8dJ	.
2r	2r	8e-XL	4cc
.	.	8c	.
.	.	8d	4b-X
.	.	8enJ	.
=115	=115	=115	=115
8r	1r	[1f	8aL
8EL	.	.	8g
8F	.	.	8a
8GJ	.	.	8b-J
8AL	.	.	8ccL
8F	.	.	8a
8G	.	.	8bn
8AJ	.	.	8cc#XJ
=116	=116	=116	=116
4B-	8r	2f]	4dd
.	8cL	.	.
4r	8B-	.	2g
.	8AJ	.	.
2r	8GL	2e	.
.	8B-	.	.
.	8A	.	[4f
.	8GJ	.	.
=117	=117	=117	=117
8r	4F	4.d	8fL]
8GL	.	.	8eJ
8F	4r	.	2d
8EJ	.	8c	.
8DL	2r	2B-	.
8F	.	.	.
8E	.	.	[4g
8DJ	.	.	.
=118	=118	=118	=118
4C#X	1r	4A	8gL]
.	.	.	8b-
4E	.	4r	8a
.	.	.	8gJ
4C#	.	2r	8aL
.	.	.	8g
4AA	.	.	8f
.	.	.	8eJ
!!LO:LB:g=original
=119	=119	=119	=119
4D	4r	1d	8fL
.	.	.	8e
4Cn	4D	.	8f
.	.	.	8aJ
2BB-	[2d	.	8gL
.	.	.	8f
.	.	.	8e
.	.	.	8dJ
=120	=120	=120	=120
2AA	4d]	1a	2e
.	8c#XL	.	.
.	8BnJ	.	.
4r	8AL	.	4r
.	8G	.	.
4AA	8F	.	4cc#X
.	8EJ	.	.
=121	=121	=121	=121
[1BB-	8DL	1f	[2dd
.	8C#X	.	.
.	8D	.	.
.	8EJ	.	.
.	8FL	.	8ddL]
.	8D	.	8ccn
.	8E	.	8b-
.	8FJ	.	8aJ
=122	=122	=122	=122
2BB-]	8GL	1d	[1g
.	8F#X	.	.
.	8G	.	.
.	8AJ	.	.
8r	8B-L	.	.
8EL	8G	.	.
8F	8A	.	.
8GJ	8B-J	.	.
=123	=123	=123	=123
8AAL	(4B-	1c#X	1g]
8E	.	.	.
8A	4A)	.	.
8GJ	.	.	.
4F	8r	.	.
.	8AL	.	.
4E	8G	.	.
.	8AJ	.	.
=124	=124	=124	=124
2D	8B-L	2d	2f
.	8d	.	.
.	8c	.	.
.	8B-J	.	.
4r	8cL	2e	4r
.	8B-	.	.
4C#X	8A	.	4b-
.	8GJ	.	.
!!LO:LB:g=original
=125	=125	=125	=125
2D	8FL	[1f	2a
.	8B-	.	.
.	8A	.	.
.	8GJ	.	.
4r	8AL	.	4r
.	8G	.	.
4AA	8F	.	4cc#X
.	8EJ	.	.
=126	=126	=126	=126
2BB-	2D	4f]	8ddL
.	.	.	8ccn
.	.	4g	8b-
.	.	.	8aJ
4r	4r	4f	8b-L
.	.	.	8a
4C	4A	4e-X	8g
.	.	.	8f#XJ
=127	=127	=127	=127
8BB-L	2B-	2d	[1g
8C	.	.	.
8BB-	.	.	.
8AAJ	.	.	.
8BB-L	4r	4r	.
8AA	.	.	.
8GG	4B-	4d	.
8FFJ	.	.	.
=128	=128	=128	=128
4EE	4C#X	4e	8gL]
.	.	.	8b-
4E	4G	4c#X	8a
.	.	.	8gJ
4F	4F	[2d	8aL
.	.	.	8g
4G	4B-	.	8f
.	.	.	8eJ
=129	=129	=129	=129
4A	2.A	2d]	4.f
4G	.	.	.
.	.	.	8g/
4A	.	2c#X	4.e
4AA	4G	.	.
.	.	.	8d
=130	=130	=130	=130
1D;	1F#X;	1A;	1d;
==	==	==	==
*-	*-	*-	*-
!!!RDF**kern: > = above
!!!RDF**kern: < = below
!!!system-decoration: [(s1,s2,s3,s4)]
!!!URL-pdf: https://vmirror.imslp.org/files/imglnks/usimg/8/88/IMSLP504269-PMLP05843-BGA-25.1.pdf#page=37 @{SMS1}, page 37
!!!URL-pdf: https://s9.imslp.org/files/imglnks/usimg/1/1d/IMSLP469177-PMLP5843-Bach,_J.S._-_The_Art_of_the_Fugue.pdf#page=47 @{SMS2}, page 47
!!!URL-youtube: https://www.youtube.com/watch?v=OMtjlaDEMdI&t=2035s Netherlands Bach Society/Malinowski
!!!URL-youtube: https://www.youtube.com/watch?v=N6sUlZa-IrU&t=2035s Netherlands Bach Society
!!!SMS: @{SMS1}
!!!SMS1: Bach-Gesellschaft Ausgabe, Band 25.1 Leipzig: Breitkopf und Härtel, 1878. Plate B.W. XXV (1).
!!!SMS2: Bach-Gesellschaft Ausgabe, Band 47 Leipzig: Breitkopf und Härtel, 1926. Plate B.W. XLVII.
!!!PED: Wilhelm Rust
!!!PED-ODT: 1822-1892
!!!ONB: Die Kunst der Fuge nach dem Berliner Autograph in Anordnung und Lesarten
!!!ENC: Craig Stuart Sapp
!!!END: 2024/03/23
!!!EED: Craig Stuart Sapp
!!!EEV: 2024/03/28
!!!title: @{OPR} (@{SCA}), @{OTL}
!!!filter-keyboard: autostem -r | satb2gs | shed -e s/clefC./clefG2/I
!!!filter-modern: modori -m | autostem -r
